X:1
T:Title
L:1/8
Q:1/4=100
M:4/4
K:G
V:1 treble nm="Church Organ, Staff"
V:1
 D2 E2- E/ z/ D E2 | F2 G2 A2 c2 | c2 d2- d/ z/ B A2 | G2 A4 A2- | A2 B2- B/ z/ A G2 | %5
w: By~Rev.~L.~J.~T.~Darwell * * * *|||||
 F2 A2- A/ z/ G F2 | E2 G2- G/ z/ F E2 | ^DF E4 F2- | F2 G2 G2 c2 | BA B2 d2 AG | A2 B2 e2 ^cB | %11
w: ||||||
 ^c2 d6 | A2 d2 cB c2 | A2 B2 AG A2 | B2 E2 GF E2 | ^DF E6 |] %16
w: |||||

